;FLAVOR:Marlin
;TIME:3422
;Filament used: 1.92766m
;Layer height: 0.2
;MINX:79.893
;MINY:92.237
;MINZ:0.2
;MAXX:131.893
;MAXY:154.237
;MAXZ:17.2
;Generated with Cura_SteamEngine 4.10.0
M140 S60
M105
M190 S60
M104 S200
M105
M109 S200
M82 ;absolute extrusion mode
; Ender 3 Custom Start G-code
G92 E0 ; Reset Extruder
G28 ; Home all axes
G1 Z2.0 F3000 ; Move Z Axis up little to prevent scratching of Heat Bed
G1 X0.1 Y20 Z0.3 F5000.0 ; Move to start position
G1 X0.1 Y200.0 Z0.3 F1500.0 E15 ; Draw the first line
G1 X0.4 Y200.0 Z0.3 F5000.0 ; Move to side a little
G1 X0.4 Y20 Z0.3 F1500.0 E30 ; Draw the second line
G92 E0 ; Reset Extruder
G1 Z2.0 F3000 ; Move Z Axis up little to prevent scratching of Heat Bed
G1 X5 Y20 Z0.3 F5000.0 ; Move over to prevent blob squish
G92 E0
G92 E0
G1 F1500 E-6.5
;LAYER_COUNT:85
;LAYER:0
M107
G1 F300 Z0.4
G0 F6000 X83.779 Y94.864 Z0.4
;TYPE:SKIRT
G1 F300 Z0.2
G1 F1500 E0
G1 F1200 X84.519 Y94.288 E0.03119
G1 X85.305 Y93.776 E0.06239
G1 X86.132 Y93.334 E0.09358
G1 X86.994 Y92.964 E0.12478
G1 X87.884 Y92.668 E0.15597
G1 X88.796 Y92.45 E0.18716
G1 X89.723 Y92.309 E0.21835
G1 X90.594 Y92.25 E0.24738
G1 X90.915 Y92.241 E0.25806
G1 X91.223 Y92.237 E0.26831
G1 X120.186 Y92.237 E1.23162
G1 X121.042 Y92.248 E1.2601
G1 X121.978 Y92.302 E1.29128
G1 X122.906 Y92.434 E1.32246
G1 X123.82 Y92.646 E1.35366
G1 X124.712 Y92.935 E1.38485
G1 X125.577 Y93.298 E1.41605
G1 X126.407 Y93.734 E1.44723
G1 X127.198 Y94.239 E1.47845
G1 X127.942 Y94.81 E1.50964
G1 X128.635 Y95.442 E1.54083
G1 X129.272 Y96.13 E1.57202
G1 X129.847 Y96.871 E1.60321
G1 X130.358 Y97.657 E1.6344
G1 X130.8 Y98.485 E1.66561
G1 X131.169 Y99.347 E1.6968
G1 X131.464 Y100.237 E1.72798
G1 X131.682 Y101.149 E1.75917
G1 X131.822 Y102.077 E1.79039
G1 X131.88 Y102.938 E1.81909
G1 X131.889 Y103.258 E1.82974
G1 X131.893 Y103.567 E1.84002
G1 X131.892 Y142.637 E3.13949
G1 X131.883 Y143.364 E3.16367
G1 X131.832 Y144.301 E3.19488
G1 X131.7 Y145.229 E3.22606
G1 X131.491 Y146.143 E3.25724
G1 X131.204 Y147.036 E3.28844
G1 X130.842 Y147.902 E3.31966
G1 X130.408 Y148.733 E3.35084
G1 X129.904 Y149.524 E3.38203
G1 X129.335 Y150.269 E3.41321
G1 X128.704 Y150.964 E3.44444
G1 X128.017 Y151.602 E3.47562
G1 X127.278 Y152.179 E3.5068
G1 X126.492 Y152.691 E3.538
G1 X125.666 Y153.134 E3.56918
G1 X124.804 Y153.506 E3.6004
G1 X123.915 Y153.802 E3.63157
G1 X123.003 Y154.022 E3.66277
G1 X122.076 Y154.163 E3.69396
G1 X121.192 Y154.224 E3.72343
G1 X120.871 Y154.233 E3.73411
G1 X120.563 Y154.237 E3.74436
G1 X91.458 Y154.236 E4.71239
G1 X90.76 Y154.227 E4.73561
G1 X89.824 Y154.175 E4.76679
G1 X88.895 Y154.043 E4.798
G1 X87.981 Y153.833 E4.82919
G1 X87.088 Y153.546 E4.86039
G1 X86.223 Y153.183 E4.89159
G1 X85.392 Y152.749 E4.92277
G1 X84.601 Y152.245 E4.95396
G1 X83.856 Y151.675 E4.98516
G1 X83.162 Y151.044 E5.01636
G1 X82.525 Y150.357 E5.04752
G1 X81.948 Y149.617 E5.07873
G1 X81.436 Y148.831 E5.10993
G1 X80.993 Y148.004 E5.14114
G1 X80.622 Y147.143 E5.17232
G1 X80.326 Y146.253 E5.20351
G1 X80.107 Y145.341 E5.23471
G1 X79.966 Y144.414 E5.2659
G1 X79.906 Y143.525 E5.29553
G1 X79.897 Y143.192 E5.30661
G1 X79.893 Y142.895 E5.31649
G1 X79.894 Y103.762 E6.61806
G1 X79.903 Y103.097 E6.64018
G1 X79.956 Y102.161 E6.67136
G1 X80.088 Y101.232 E6.70257
G1 X80.299 Y100.318 E6.73377
G1 X80.587 Y99.426 E6.76495
G1 X80.95 Y98.561 E6.79615
G1 X81.385 Y97.73 E6.82734
G1 X81.889 Y96.94 E6.85851
G1 X82.459 Y96.195 E6.88971
G1 X83.091 Y95.501 E6.92093
G1 X83.779 Y94.864 E6.95211
G0 F6000 X84.167 Y95.06
G1 F1200 X84.903 Y94.507 E6.98273
G1 X85.684 Y94.019 E7.01336
G1 X86.504 Y93.601 E7.04398
G1 X87.358 Y93.256 E7.07461
G1 X88.238 Y92.986 E7.10523
G1 X89.138 Y92.794 E7.13583
G1 X90.052 Y92.68 E7.16647
G1 X90.605 Y92.65 E7.18489
G1 X90.926 Y92.641 E7.19557
G1 X91.223 Y92.637 E7.20545
G1 X120.186 Y92.637 E8.16876
G1 X121.036 Y92.648 E8.19704
G1 X121.955 Y92.701 E8.22765
G1 X122.866 Y92.834 E8.25827
G1 X123.762 Y93.045 E8.28889
G1 X124.636 Y93.333 E8.3195
G1 X125.483 Y93.696 E8.35015
G1 X126.294 Y94.131 E8.38076
G1 X127.064 Y94.635 E8.41136
G1 X127.788 Y95.204 E8.44199
G1 X128.46 Y95.834 E8.47263
G1 X129.075 Y96.519 E8.50325
G1 X129.628 Y97.255 E8.53387
G1 X130.115 Y98.036 E8.56448
G1 X130.532 Y98.857 E8.59511
G1 X130.877 Y99.711 E8.62574
G1 X131.146 Y100.591 E8.65635
G1 X131.338 Y101.492 E8.68699
G1 X131.451 Y102.405 E8.71758
G1 X131.48 Y102.949 E8.7357
G1 X131.489 Y103.269 E8.74635
G1 X131.493 Y103.567 E8.75626
G1 X131.492 Y142.632 E10.05557
G1 X131.483 Y143.359 E10.07975
G1 X131.432 Y144.278 E10.11037
G1 X131.301 Y145.19 E10.14101
G1 X131.091 Y146.086 E10.17162
G1 X130.805 Y146.961 E10.20224
G1 X130.444 Y147.808 E10.23286
G1 X130.01 Y148.62 E10.26348
G1 X129.508 Y149.392 E10.29411
G1 X128.94 Y150.117 E10.32474
G1 X128.312 Y150.79 E10.35536
G1 X127.628 Y151.406 E10.38597
G1 X126.893 Y151.96 E10.41659
G1 X126.113 Y152.449 E10.44721
G1 X125.293 Y152.868 E10.47783
G1 X124.44 Y153.214 E10.50845
G1 X123.56 Y153.485 E10.53908
G1 X122.66 Y153.678 E10.56969
G1 X121.746 Y153.793 E10.60033
G1 X121.181 Y153.824 E10.61915
G1 X120.86 Y153.833 E10.62983
G1 X120.563 Y153.837 E10.63971
G1 X91.463 Y153.836 E11.60758
G1 X90.765 Y153.827 E11.6308
G1 X89.846 Y153.775 E11.66141
G1 X88.935 Y153.644 E11.69202
G1 X88.039 Y153.434 E11.72263
G1 X87.164 Y153.147 E11.75326
G1 X86.317 Y152.785 E11.7839
G1 X85.505 Y152.351 E11.81452
G1 X84.734 Y151.849 E11.84512
G1 X84.009 Y151.281 E11.87575
G1 X83.336 Y150.652 E11.90639
G1 X82.721 Y149.968 E11.93699
G1 X82.167 Y149.233 E11.9676
G1 X81.679 Y148.452 E11.99823
G1 X81.26 Y147.632 E12.02886
G1 X80.914 Y146.779 E12.05947
G1 X80.644 Y145.899 E12.09009
G1 X80.451 Y144.998 E12.12073
G1 X80.337 Y144.085 E12.15134
G1 X80.306 Y143.514 E12.17036
G1 X80.297 Y143.181 E12.18144
G1 X80.293 Y142.895 E12.19095
G1 X80.294 Y103.768 E13.49232
G1 X80.303 Y103.103 E13.51444
G1 X80.355 Y102.183 E13.54509
G1 X80.487 Y101.272 E13.5757
G1 X80.698 Y100.376 E13.60632
G1 X80.985 Y99.501 E13.63695
G1 X81.348 Y98.655 E13.66757
G1 X81.782 Y97.843 E13.69819
G1 X82.285 Y97.072 E13.72881
G1 X82.854 Y96.348 E13.75943
G1 X83.482 Y95.676 E13.79003
G1 X84.167 Y95.06 E13.82067
G0 F6000 X84.555 Y95.261
G1 F1200 X85.287 Y94.731 E13.85072
G1 X86.062 Y94.268 E13.88075
G1 X86.875 Y93.875 E13.91078
G1 X87.72 Y93.555 E13.94084
G1 X88.589 Y93.312 E13.97085
G1 X89.477 Y93.146 E14.0009
G1 X90.616 Y93.05 E14.03891
G1 X90.937 Y93.041 E14.04959
G1 X91.223 Y93.037 E14.05911
G1 X120.186 Y93.037 E15.02242
G1 X121.03 Y93.048 E15.05049
G1 X121.932 Y93.101 E15.08055
G1 X122.825 Y93.233 E15.11057
G1 X123.703 Y93.444 E15.14061
G1 X124.559 Y93.732 E15.17064
G1 X125.386 Y94.094 E15.20067
G1 X126.178 Y94.529 E15.23072
G1 X126.929 Y95.031 E15.26077
G1 X127.632 Y95.598 E15.29081
G1 X128.282 Y96.225 E15.32085
G1 X128.874 Y96.907 E15.35088
G1 X129.404 Y97.638 E15.38091
G1 X129.866 Y98.414 E15.41095
G1 X130.259 Y99.227 E15.44099
G1 X130.577 Y100.072 E15.47102
G1 X130.82 Y100.942 E15.50106
G1 X130.985 Y101.83 E15.5311
G1 X131.08 Y102.96 E15.56882
G1 X131.089 Y103.28 E15.57946
G1 X131.093 Y103.567 E15.58901
G1 X131.092 Y142.627 E16.88815
G1 X131.083 Y143.354 E16.91233
G1 X131.032 Y144.256 E16.94238
G1 X130.901 Y145.15 E16.97243
G1 X130.692 Y146.028 E17.00245
G1 X130.406 Y146.885 E17.0325
G1 X130.045 Y147.713 E17.06254
G1 X129.613 Y148.505 E17.09255
G1 X129.112 Y149.257 E17.1226
G1 X128.546 Y149.961 E17.15265
G1 X127.921 Y150.612 E17.18266
G1 X127.24 Y151.206 E17.21272
G1 X126.509 Y151.737 E17.24277
G1 X125.735 Y152.201 E17.27279
G1 X124.922 Y152.595 E17.30283
G1 X124.078 Y152.915 E17.33286
G1 X123.208 Y153.16 E17.36292
G1 X122.321 Y153.326 E17.39293
G1 X121.17 Y153.424 E17.43135
G1 X120.849 Y153.433 E17.44203
G1 X120.563 Y153.437 E17.45155
G1 X91.468 Y153.436 E18.41925
G1 X90.77 Y153.427 E18.44247
G1 X89.869 Y153.376 E18.47248
G1 X88.975 Y153.244 E18.50254
G1 X88.097 Y153.035 E18.53256
G1 X87.24 Y152.748 E18.56262
G1 X86.413 Y152.387 E18.59263
G1 X85.62 Y151.954 E18.62268
G1 X84.869 Y151.453 E18.65271
G1 X84.165 Y150.887 E18.68275
G1 X83.514 Y150.261 E18.71279
G1 X82.921 Y149.58 E18.74282
G1 X82.391 Y148.849 E18.77286
G1 X81.927 Y148.074 E18.8029
G1 X81.533 Y147.261 E18.83295
G1 X81.213 Y146.417 E18.86297
G1 X80.969 Y145.547 E18.89302
G1 X80.803 Y144.659 E18.92307
G1 X80.706 Y143.504 E18.96162
G1 X80.697 Y143.171 E18.9727
G1 X80.693 Y142.895 E18.98188
G1 X80.694 Y103.773 E20.28308
G1 X80.703 Y103.108 E20.3052
G1 X80.755 Y102.206 E20.33525
G1 X80.887 Y101.313 E20.36528
G1 X81.097 Y100.435 E20.3953
G1 X81.384 Y99.578 E20.42536
G1 X81.746 Y98.751 E20.45539
G1 X82.179 Y97.959 E20.48541
G1 X82.681 Y97.208 E20.51546
G1 X83.248 Y96.504 E20.54552
G1 X83.874 Y95.854 E20.57554
G1 X84.555 Y95.261 E20.60557
G1 F1500 E14.10557
G1 F300 Z0.4
;MESH:Box.3mf
G0 F6000 X120.293 Y142.637 Z0.4
;TYPE:WALL-INNER
G1 F300 Z0.2
G1 F1500 E20.60557
G1 F1200 X91.493 Y142.637 E21.56346
G1 X91.493 Y103.837 E22.85395
G1 X120.293 Y103.837 E23.81185
G1 X120.293 Y142.637 E25.10234
G0 F6000 X120.693 Y143.037
;TYPE:WALL-OUTER
G1 F1200 X91.093 Y143.037 E26.08684
G1 X91.093 Y103.437 E27.40394
G1 X120.693 Y103.437 E28.38844
G1 X120.693 Y143.037 E29.70554
G0 F6000 X119.903 Y142.247
;TYPE:SKIN
G1 F1200 X91.883 Y142.247 E30.63749
G1 X91.883 Y104.227 E31.90204
G1 X119.903 Y104.227 E32.83399
G1 X119.903 Y142.247 E34.09854
G1 F1500 E27.59854
G1 F300 Z0.4
G0 F6000 X92.305 Y142.086 Z0.4
G1 F300 Z0.2
G1 F1500 E34.09854
G1 F1200 X92.042 Y141.822 E34.11094
G0 F6000 X92.042 Y141.257
G1 F1200 X92.871 Y142.086 E34.14993
G0 F6000 X93.437 Y142.086
G1 F1200 X92.042 Y140.691 E34.21555
G0 F6000 X92.042 Y140.125
G1 F1200 X94.002 Y142.086 E34.30776
G0 F6000 X94.568 Y142.086
G1 F1200 X92.042 Y139.56 E34.42658
G0 F6000 X92.042 Y138.994
G1 F1200 X95.134 Y142.086 E34.57202
G0 F6000 X95.699 Y142.086
G1 F1200 X92.042 Y138.428 E34.74405
G0 F6000 X92.042 Y137.863
G1 F1200 X96.265 Y142.086 E34.94269
G0 F6000 X96.831 Y142.086
G1 F1200 X92.042 Y137.297 E35.16795
G0 F6000 X92.042 Y136.731
G1 F1200 X97.396 Y142.086 E35.41981
G0 F6000 X97.962 Y142.086
G1 F1200 X92.042 Y136.166 E35.69827
G0 F6000 X92.042 Y135.6
G1 F1200 X98.528 Y142.086 E36.00335
G0 F6000 X99.093 Y142.086
G1 F1200 X92.042 Y135.034 E36.33503
G0 F6000 X92.042 Y134.469
G1 F1200 X99.659 Y142.086 E36.69331
G0 F6000 X100.225 Y142.086
G1 F1200 X92.042 Y133.903 E37.07821
G0 F6000 X92.042 Y133.337
G1 F1200 X100.791 Y142.086 E37.48974
G0 F6000 X101.356 Y142.086
G1 F1200 X92.042 Y132.772 E37.92784
G0 F6000 X92.042 Y132.206
G1 F1200 X101.922 Y142.086 E38.39257
G0 F6000 X102.488 Y142.086
G1 F1200 X92.042 Y131.64 E38.88391
G0 F6000 X92.042 Y131.074
G1 F1200 X103.053 Y142.086 E39.40186
G0 F6000 X103.619 Y142.086
G1 F1200 X92.042 Y130.509 E39.94641
G0 F6000 X92.042 Y129.943
G1 F1200 X104.185 Y142.086 E40.51758
G0 F6000 X104.75 Y142.086
G1 F1200 X92.042 Y129.377 E41.11535
G0 F6000 X92.042 Y128.812
G1 F1200 X105.316 Y142.086 E41.73971
G0 F6000 X105.882 Y142.086
G1 F1200 X92.042 Y128.246 E42.39071
G0 F6000 X92.042 Y127.68
G1 F1200 X106.447 Y142.086 E43.0683
G0 F6000 X107.013 Y142.086
G1 F1200 X92.042 Y127.115 E43.77249
G0 F6000 X92.042 Y126.549
G1 F1200 X107.579 Y142.086 E44.5033
G0 F6000 X108.144 Y142.086
G1 F1200 X92.042 Y125.983 E45.26071
G0 F6000 X92.042 Y125.418
G1 F1200 X108.71 Y142.086 E46.04472
G0 F6000 X109.276 Y142.086
G1 F1200 X92.042 Y124.852 E46.85536
G0 F6000 X92.042 Y124.286
G1 F1200 X109.841 Y142.086 E47.69259
G0 F6000 X110.407 Y142.086
G1 F1200 X92.042 Y123.721 E48.55643
G0 F6000 X92.042 Y123.155
G1 F1200 X110.973 Y142.086 E49.44688
G0 F6000 X111.539 Y142.086
G1 F1200 X92.042 Y122.589 E50.36396
G0 F6000 X92.042 Y122.024
G1 F1200 X112.104 Y142.086 E51.30762
G0 F6000 X112.67 Y142.086
G1 F1200 X92.042 Y121.458 E52.27789
G0 F6000 X92.042 Y120.892
G1 F1200 X113.236 Y142.086 E53.27479
G0 F6000 X113.801 Y142.086
G1 F1200 X92.042 Y120.326 E54.29829
G0 F6000 X92.042 Y119.761
G1 F1200 X114.367 Y142.086 E55.34839
G0 F6000 X114.933 Y142.086
G1 F1200 X92.042 Y119.195 E56.42512
G0 F6000 X92.042 Y118.629
G1 F1200 X115.498 Y142.086 E57.52844
G0 F6000 X116.064 Y142.086
G1 F1200 X92.042 Y118.064 E58.65836
G0 F6000 X92.042 Y117.498
G1 F1200 X116.63 Y142.086 E59.8149
G0 F6000 X117.195 Y142.086
G1 F1200 X92.042 Y116.932 E60.99805
G0 F6000 X92.042 Y116.367
G1 F1200 X117.761 Y142.086 E62.20779
G0 F6000 X118.327 Y142.086
G1 F1200 X92.042 Y115.801 E63.44416
G0 F6000 X92.042 Y115.235
G1 F1200 X118.892 Y142.086 E64.70712
G0 F6000 X119.458 Y142.086
G1 F1200 X92.042 Y114.67 E65.99669
G0 F6000 X92.042 Y114.104
G1 F1200 X119.742 Y141.804 E67.29961
G0 F6000 X119.742 Y141.238
G1 F1200 X92.042 Y113.538 E68.60253
G0 F6000 X92.042 Y112.973
G1 F1200 X119.742 Y140.673 E69.90545
G0 F6000 X119.742 Y140.107
G1 F1200 X92.042 Y112.407 E71.20838
G0 F6000 X92.042 Y111.841
G1 F1200 X119.742 Y139.541 E72.5113
G0 F6000 X119.742 Y138.976
G1 F1200 X92.042 Y111.275 E73.81425
G0 F6000 X92.042 Y110.71
G1 F1200 X119.742 Y138.41 E75.11717
G0 F6000 X119.742 Y137.844
G1 F1200 X92.042 Y110.144 E76.42009
G0 F6000 X92.042 Y109.578
G1 F1200 X119.742 Y137.279 E77.72304
G0 F6000 X119.742 Y136.713
G1 F1200 X92.042 Y109.013 E79.02596
G0 F6000 X92.042 Y108.447
G1 F1200 X119.742 Y136.147 E80.32889
G0 F6000 X119.742 Y135.582
G1 F1200 X92.042 Y107.881 E81.63183
G0 F6000 X92.042 Y107.316
G1 F1200 X119.742 Y135.016 E82.93476
G0 F6000 X119.742 Y134.45
G1 F1200 X92.042 Y106.75 E84.23768
G0 F6000 X92.042 Y106.184
G1 F1200 X119.742 Y133.885 E85.54063
G0 F6000 X119.742 Y133.319
G1 F1200 X92.042 Y105.619 E86.84355
G0 F6000 X92.042 Y105.053
G1 F1200 X119.742 Y132.753 E88.14647
G0 F6000 X119.742 Y132.187
G1 F1200 X92.042 Y104.487 E89.44939
G0 F6000 X92.507 Y104.386
G1 F1200 X119.742 Y131.622 E90.73047
G0 F6000 X119.742 Y131.056
G1 F1200 X93.072 Y104.386 E91.98494
G0 F6000 X93.638 Y104.386
G1 F1200 X119.742 Y130.49 E93.2128
G0 F6000 X119.742 Y129.925
G1 F1200 X94.204 Y104.386 E94.41405
G0 F6000 X94.769 Y104.386
G1 F1200 X119.742 Y129.359 E95.5887
G0 F6000 X119.742 Y128.793
G1 F1200 X95.335 Y104.386 E96.73673
G0 F6000 X95.901 Y104.386
G1 F1200 X119.742 Y128.228 E97.85816
G0 F6000 X119.742 Y127.662
G1 F1200 X96.467 Y104.386 E98.95297
G0 F6000 X97.032 Y104.386
G1 F1200 X119.742 Y127.096 E100.02118
G0 F6000 X119.742 Y126.531
G1 F1200 X97.598 Y104.386 E101.06279
G0 F6000 X98.164 Y104.386
G1 F1200 X119.742 Y125.965 E102.07778
G0 F6000 X119.742 Y125.399
G1 F1200 X98.729 Y104.386 E103.06616
G0 F6000 X99.295 Y104.386
G1 F1200 X119.742 Y124.834 E104.02795
G0 F6000 X119.742 Y124.268
G1 F1200 X99.861 Y104.386 E104.96312
G0 F6000 X100.426 Y104.386
G1 F1200 X119.742 Y123.702 E105.87168
G0 F6000 X119.742 Y123.136
G1 F1200 X100.992 Y104.386 E106.75362
G0 F6000 X101.558 Y104.386
G1 F1200 X119.742 Y122.571 E107.60897
G0 F6000 X119.742 Y122.005
G1 F1200 X102.123 Y104.386 E108.43771
G0 F6000 X102.689 Y104.386
G1 F1200 X119.742 Y121.439 E109.23983
G0 F6000 X119.742 Y120.874
G1 F1200 X103.255 Y104.386 E110.01535
G0 F6000 X103.82 Y104.386
G1 F1200 X119.742 Y120.308 E110.76428
G0 F6000 X119.742 Y119.742
G1 F1200 X104.386 Y104.386 E111.48657
G0 F6000 X104.952 Y104.386
G1 F1200 X119.742 Y119.177 E112.18227
G0 F6000 X119.742 Y118.611
G1 F1200 X105.518 Y104.386 E112.85135
G0 F6000 X106.083 Y104.386
G1 F1200 X119.742 Y118.045 E113.49383
G0 F6000 X119.742 Y117.48
G1 F1200 X106.649 Y104.386 E114.10971
G0 F6000 X107.215 Y104.386
G1 F1200 X119.742 Y116.914 E114.69896
G0 F6000 X119.742 Y116.348
G1 F1200 X107.78 Y104.386 E115.26162
G0 F6000 X108.346 Y104.386
G1 F1200 X119.742 Y115.783 E115.79767
G0 F6000 X119.742 Y115.217
G1 F1200 X108.912 Y104.386 E116.30711
G0 F6000 X109.477 Y104.386
G1 F1200 X119.742 Y114.651 E116.78994
G0 F6000 X119.742 Y114.086
G1 F1200 X110.043 Y104.386 E117.24618
G0 F6000 X110.609 Y104.386
G1 F1200 X119.742 Y113.52 E117.67579
G0 F6000 X119.742 Y112.954
G1 F1200 X111.174 Y104.386 E118.0788
G0 F6000 X111.74 Y104.386
G1 F1200 X119.742 Y112.388 E118.45519
G0 F6000 X119.742 Y111.823
G1 F1200 X112.306 Y104.386 E118.80498
G0 F6000 X112.871 Y104.386
G1 F1200 X119.742 Y111.257 E119.12817
G0 F6000 X119.742 Y110.691
G1 F1200 X113.437 Y104.386 E119.42474
G0 F6000 X114.003 Y104.386
G1 F1200 X119.742 Y110.126 E119.69471
G0 F6000 X119.742 Y109.56
